X:1
T:Lake Champlain, 97.97 D
T:Lake Champlain, 97.97 D
T:Harry Dixon Loes, 1917
T:Public Domain Courtesy of the Cyber Hymnal™
C:Harry Dixon Loes, 1917
Z:Public Domain
Z:Courtesy of the Cyber Hymnal™
%%score ( 1 2 ) ( 3 4 )
L:1/8
Q:1/4=115
M:6/4
K:Eb
V:1 treble 
V:2 treble 
V:3 bass 
V:4 bass 
V:1
 G2 E2 G2 c2 G2 c2 | [Gce]4 [F=Bd]2 [EGc]6 | c3 d e2 B4 A2 | A6 [_B,E]2 [B,E]2 G6 [B,F]2 [B,F]2 | %4
 G2 E2 G2 c2 G2 c2 | [Gce]4 [F=Bd]2 [EGc]6 | c3 d e2 d4 c2 | B6 !fermata![DFAB]6 | %8
 G2 G2 G2 B2 B2 [FB]2 | [EGe]4 [E^F=Ad]2 [EGB]6 | d3 c B2 =F4 ^F2 | G6 [B,^C]2 [DAB]6 | %12
 G2 G2 G2 B2 B2 [FB]2 | [EGe]4 [E^F=Ae]2 [EGB]4 [=F=B]2 | c G3 [E^F=A]2 B4 [DF]2 [DAB]2 | %15
 [EGB]12 |] %16
V:2
 [CE]6 [EG]6 | x12 | [EA]6 E6 | [B,E]2 [=B,F]2 x16 | [CE]6 [EG]6 | x12 | [F=A]6 [FA]6 | %7
 (F4 E2) x6 | [B,E]6 [DF]4 x2 | x12 | [D^FA]6 D6 | [B,E]4 x10 | [B,E]6 [DF]4 x2 | x12 | %14
 [EG]4 x [EG]2 x7 | x12 |] %16
V:3
 [C,,E,]6 [E,,E,]6 | [G,,G,]6 [C,,C,]6 | [A,,A,]6 G,4 F,2 | [E,,E,]6 [D,,D,]6 x8 | %4
 [C,,E,]6 [E,,E,]6 | [G,,G,]6 [E,,C,]6 | [F,,F,]6 [F,,F,]4 [E,,E,]2 | %7
 ([D,,D,]4 [C,,C,]2) [B,,,B,,]6 | [E,,E,]6 [D,,D,]4 [_D,,_D,]2 | [C,,C,]4 [_C,,_C,]2 [B,,,B,,]6 | %10
 [B,,,B,,]6 [B,,B,]6 | [E,,E,]4 [=E,,=E,]2 [F,,F,]4 [B,,,B,,]2 x2 | [E,,E,]6 [D,,D,]4 [_D,,_D,]2 | %13
 [C,,C,]4 [_C,,_C,]2 [B,,,B,,]4 [G,,G,]2 | [C,,C,]4 [_C,,_C,]2 [B,,,B,,]6 x2 | [E,,E,]12 |] %16
V:4
 x12 | x12 | x6 B,,6 | x20 | x12 | x12 | x12 | x12 | x12 | x12 | x12 | x14 | x12 | x12 | x14 | %15
 x12 |] %16

